apps/root/public/icon-w-name.svg

<svg width="1811" height="352" fill="none" xmlns="http://www.w3.org/2000/svg"><path d="M87.329 15.448C56.197-15.427 2.959 6.462 3 50.12l.143 154.184c.04 43.537 53.064 65.384 84.212 34.698l77.921-76.765c19.395-19.107 19.447-50.201.116-69.371l-78.063-77.42z" fill="#007BFF"/><path d="M352.73 159.641c-.121-57.091-69.826-85.508-110.414-45.011L114.979 241.681c-40.474 40.383-11.665 109.137 45.754 109.193l127.608.126c35.753.035 64.734-28.732 64.659-64.182l-.27-127.177z" fill="#F51B5E"/><path d="M256.474 50.19c0 22.888-18.713 41.442-41.797 41.442-23.083 0-41.796-18.555-41.796-41.442 0-22.888 18.713-41.443 41.796-41.443 23.084 0 41.797 18.555 41.797 41.443z" fill="#3D3D3D"/><path d="M449 253.072c-10.411 0-19.712-2.389-27.904-7.168-8.192-4.949-14.677-12.032-19.456-21.248-4.608-9.216-6.912-20.139-6.912-32.768 0-12.629 2.56-23.381 7.68-32.256 5.12-8.875 12.117-15.616 20.992-20.224 8.875-4.608 18.944-6.912 30.208-6.912 7.168 0 13.995 1.109 20.48 3.328 6.656 2.219 12.203 5.632 16.64 10.24v11.264V48.016h35.584V250h-35.84v-21.76l2.816 7.68c-5.803 4.779-12.288 8.875-19.456 12.288-7.168 3.243-15.445 4.864-24.832 4.864zm11.776-30.208c4.779 0 8.96-.597 12.544-1.792 3.755-1.365 6.997-3.243 9.728-5.632 2.901-2.56 5.376-5.717 7.424-9.472v-27.392c-1.365-3.755-3.499-6.912-6.4-9.472-2.731-2.731-6.144-4.779-10.24-6.144-3.925-1.536-8.277-2.304-13.056-2.304-5.291 0-10.24 1.365-14.848 4.096-4.437 2.56-8.021 6.144-10.752 10.752-2.731 4.608-4.096 9.899-4.096 15.872 0 5.973 1.365 11.349 4.096 16.128s6.315 8.533 10.752 11.264c4.608 2.731 9.557 4.096 14.848 4.096zm149.51 30.208c-10.411 0-19.883-2.048-28.416-6.144-8.363-4.267-15.019-10.752-19.968-19.456-4.949-8.704-7.424-19.797-7.424-33.28 0-12.629 2.56-23.552 7.68-32.768 5.12-9.216 11.861-16.299 20.224-21.248 8.363-5.12 17.237-7.68 26.624-7.68 11.093 0 19.456 1.877 25.088 5.632 5.803 3.584 10.581 7.595 14.336 12.032l-1.536 4.352 3.328-16.384h33.28V250h-35.84v-24.32l2.816 7.68c-.341 0-1.365 1.024-3.072 3.072-1.707 1.877-4.267 4.181-7.68 6.912-3.243 2.56-7.339 4.779-12.288 6.656-4.779 2.048-10.496 3.072-17.152 3.072zm10.24-29.184c4.267 0 8.107-.597 11.52-1.792 3.413-1.365 6.4-3.243 8.96-5.632 2.56-2.56 4.779-5.717 6.656-9.472V179.6c-1.365-3.755-3.413-6.912-6.144-9.472-2.731-2.731-5.973-4.779-9.728-6.144-3.755-1.536-7.936-2.304-12.544-2.304-5.12 0-9.899 1.365-14.336 4.096-4.267 2.56-7.68 6.144-10.24 10.752-2.56 4.608-3.84 9.899-3.84 15.872 0 5.973 1.365 11.349 4.096 16.128s6.315 8.533 10.752 11.264c4.608 2.731 9.557 4.096 14.848 4.096zm132.418-85.76l2.816 19.968-.512-1.792c3.925-6.997 9.472-12.629 16.64-16.896 7.168-4.437 15.957-6.656 26.368-6.656 10.581 0 19.371 3.157 26.368 9.472 7.168 6.144 10.837 14.165 11.008 24.064V250h-35.84v-70.4c-.171-4.949-1.536-8.875-4.096-11.776-2.389-3.072-6.485-4.608-12.288-4.608-5.461 0-10.24 1.792-14.336 5.376-4.096 3.584-7.253 8.448-9.472 14.592-2.219 6.144-3.328 13.227-3.328 21.248V250h-35.84V138.128h32.512zm119.488 0h35.84V250h-35.84V138.128zm-.768-39.68c0-5.29 2.048-9.643 6.144-13.056 4.267-3.413 8.789-5.12 13.568-5.12s9.131 1.707 13.056 5.12c4.096 3.413 6.144 7.765 6.144 13.056 0 5.291-2.048 9.643-6.144 13.056-3.925 3.243-8.277 4.864-13.056 4.864s-9.301-1.621-13.568-4.864c-4.096-3.413-6.144-7.765-6.144-13.056zm128.556 154.624c-13.651 0-25.257-2.56-34.814-7.68-9.387-5.12-16.555-12.203-21.504-21.248-4.949-9.045-7.424-19.456-7.424-31.232 0-11.264 2.901-21.419 8.704-30.464 5.803-9.045 13.568-16.213 23.296-21.504 9.728-5.461 20.565-8.192 32.512-8.192 16.04 0 29.18 4.693 39.42 14.08 10.41 9.216 17.16 22.613 20.23 40.192l-87.042 27.648-7.936-19.456 62.978-21.248-7.43 3.328c-1.36-4.437-3.84-8.277-7.42-11.52-3.41-3.413-8.62-5.12-15.616-5.12-5.291 0-9.984 1.28-14.08 3.84-3.925 2.389-6.997 5.888-9.216 10.496-2.048 4.437-3.072 9.728-3.072 15.872 0 6.997 1.28 12.885 3.84 17.664 2.56 4.608 6.059 8.107 10.496 10.496 4.437 2.389 9.387 3.584 14.848 3.584 3.93 0 7.68-.683 11.26-2.048 3.76-1.365 7.43-3.157 11.01-5.376l15.87 26.624c-5.97 3.413-12.45 6.144-19.45 8.192-6.83 2.048-13.31 3.072-19.46 3.072zm86.46-205.056h35.84V250h-35.84V48.016zm163.43 256l-20.74-22.272c5.12-3.755 9.05-8.363 11.78-13.824 2.9-5.461 4.35-12.117 4.35-19.968V138.128h35.84V250c0 13.312-2.39 24.32-7.17 33.024-4.78 8.875-12.8 15.872-24.06 20.992zm-5.89-205.568c0-5.29 2.05-9.643 6.14-13.056 4.27-3.413 8.79-5.12 13.57-5.12 4.78 0 9.13 1.707 13.06 5.12 4.09 3.413 6.14 7.765 6.14 13.056 0 5.291-2.05 9.643-6.14 13.056-3.93 3.243-8.28 4.864-13.06 4.864-4.78 0-9.3-1.621-13.57-4.864-4.09-3.413-6.14-7.765-6.14-13.056zm65.26 94.208c0-11.435 2.64-21.675 7.93-30.72 5.47-9.045 13.06-16.128 22.79-21.248 9.73-5.291 20.9-7.936 33.53-7.936 12.8 0 23.9 2.645 33.28 7.936 9.39 5.12 16.56 12.203 21.51 21.248 5.12 9.045 7.68 19.285 7.68 30.72 0 11.435-2.56 21.76-7.68 30.976-4.95 9.045-12.12 16.213-21.51 21.504-9.38 5.291-20.65 7.936-33.79 7.936-12.29 0-23.29-2.389-33.02-7.168-9.56-4.779-17.07-11.691-22.53-20.736-5.46-9.045-8.19-19.883-8.19-32.512zm36.09.256c0 5.803 1.2 11.093 3.59 15.872 2.39 4.608 5.63 8.277 9.73 11.008 4.09 2.731 8.7 4.096 13.82 4.096 5.63 0 10.5-1.365 14.59-4.096 4.1-2.731 7.26-6.4 9.47-11.008 2.22-4.779 3.33-10.069 3.33-15.872 0-5.973-1.11-11.264-3.33-15.872-2.21-4.608-5.37-8.277-9.47-11.008-4.09-2.731-8.96-4.096-14.59-4.096-5.12 0-9.73 1.365-13.82 4.096-4.1 2.731-7.34 6.4-9.73 11.008-2.39 4.608-3.59 9.899-3.59 15.872zM1475.18 250v-80.64h-18.94v-31.744h18.94V98.704c0-14.677 4.19-26.624 12.55-35.84 8.53-9.387 20.82-14.08 36.86-14.08 4.78 0 10.07.768 15.87 2.304 5.98 1.365 11.18 3.67 15.62 6.912l-15.1 25.856c-1.71-2.219-3.76-3.67-6.15-4.352-2.22-.853-4.35-1.28-6.4-1.28-5.12 0-9.3 1.707-12.54 5.12-3.24 3.413-4.87 8.875-4.87 16.384v37.888h33.8v31.744h-33.8V250h-35.84zm82.69 0v-80.64h-18.94v-31.744h18.94V98.704c0-14.677 4.18-26.624 12.55-35.84 8.53-9.387 20.82-14.08 36.86-14.08 4.78 0 10.07.768 15.87 2.304 5.98 1.365 11.18 3.67 15.62 6.912l-15.11 25.856c-1.7-2.219-3.75-3.67-6.14-4.352-2.22-.853-4.35-1.28-6.4-1.28-5.12 0-9.3 1.707-12.54 5.12-3.25 3.413-4.87 8.875-4.87 16.384v37.888h33.79v31.744h-33.79V250h-35.84zm153.1 3.072c-13.65 0-25.26-2.56-34.81-7.68-9.39-5.12-16.56-12.203-21.51-21.248-4.95-9.045-7.42-19.456-7.42-31.232 0-11.264 2.9-21.419 8.7-30.464 5.8-9.045 13.57-16.213 23.3-21.504 9.73-5.461 20.56-8.192 32.51-8.192 16.04 0 29.18 4.693 39.42 14.08 10.41 9.216 17.16 22.613 20.23 40.192l-87.04 27.648-7.94-19.456 62.98-21.248-7.43 3.328c-1.36-4.437-3.84-8.277-7.42-11.52-3.41-3.413-8.62-5.12-15.62-5.12-5.29 0-9.98 1.28-14.08 3.84-3.92 2.389-6.99 5.888-9.21 10.496-2.05 4.437-3.07 9.728-3.07 15.872 0 6.997 1.28 12.885 3.84 17.664 2.56 4.608 6.05 8.107 10.49 10.496 4.44 2.389 9.39 3.584 14.85 3.584 3.93 0 7.68-.683 11.26-2.048 3.76-1.365 7.43-3.157 11.01-5.376l15.87 26.624c-5.97 3.413-12.45 6.144-19.45 8.192-6.83 2.048-13.31 3.072-19.46 3.072z" fill="#2A2A2A"/></svg>

<svg width="1811" height="352" viewBox="0 0 1811 352" fill="none" xmlns="http://www.w3.org/2000/svg">
<path d="M87.3288 15.4476C56.1969 -15.4271 2.95957 6.46241 3.00002 50.1209L3.14286 204.305C3.1832 247.842 56.2074 269.689 87.3554 239.003L165.276 162.238C184.671 143.131 184.723 112.037 165.392 92.8665L87.3288 15.4476Z" fill="#007BFF"/>
<path d="M352.73 159.641C352.609 102.55 282.904 74.1334 242.316 114.63L114.979 241.681C74.5046 282.064 103.314 350.818 160.733 350.874L288.341 351C324.094 351.035 353.075 322.268 353 286.818L352.73 159.641Z" fill="#F51B5E"/>
<path d="M256.474 50.1896C256.474 73.0775 237.761 91.6319 214.677 91.6319C191.594 91.6319 172.881 73.0775 172.881 50.1896C172.881 27.3016 191.594 8.7472 214.677 8.7472C237.761 8.7472 256.474 27.3016 256.474 50.1896Z" fill="#3D3D3D"/>
<path d="M449 253.072C438.589 253.072 429.288 250.683 421.096 245.904C412.904 240.955 406.419 233.872 401.64 224.656C397.032 215.44 394.728 204.517 394.728 191.888C394.728 179.259 397.288 168.507 402.408 159.632C407.528 150.757 414.525 144.016 423.4 139.408C432.275 134.8 442.344 132.496 453.608 132.496C460.776 132.496 467.603 133.605 474.088 135.824C480.744 138.043 486.291 141.456 490.728 146.064V157.328V48.016H526.312V250H490.472V228.24L493.288 235.92C487.485 240.699 481 244.795 473.832 248.208C466.664 251.451 458.387 253.072 449 253.072ZM460.776 222.864C465.555 222.864 469.736 222.267 473.32 221.072C477.075 219.707 480.317 217.829 483.048 215.44C485.949 212.88 488.424 209.723 490.472 205.968V178.576C489.107 174.821 486.973 171.664 484.072 169.104C481.341 166.373 477.928 164.325 473.832 162.96C469.907 161.424 465.555 160.656 460.776 160.656C455.485 160.656 450.536 162.021 445.928 164.752C441.491 167.312 437.907 170.896 435.176 175.504C432.445 180.112 431.08 185.403 431.08 191.376C431.08 197.349 432.445 202.725 435.176 207.504C437.907 212.283 441.491 216.037 445.928 218.768C450.536 221.499 455.485 222.864 460.776 222.864ZM610.286 253.072C599.875 253.072 590.403 251.024 581.87 246.928C573.507 242.661 566.851 236.176 561.902 227.472C556.953 218.768 554.478 207.675 554.478 194.192C554.478 181.563 557.038 170.64 562.158 161.424C567.278 152.208 574.019 145.125 582.382 140.176C590.745 135.056 599.619 132.496 609.006 132.496C620.099 132.496 628.462 134.373 634.094 138.128C639.897 141.712 644.675 145.723 648.43 150.16L646.894 154.512L650.222 138.128H683.502V250H647.662V225.68L650.478 233.36C650.137 233.36 649.113 234.384 647.406 236.432C645.699 238.309 643.139 240.613 639.726 243.344C636.483 245.904 632.387 248.123 627.438 250C622.659 252.048 616.942 253.072 610.286 253.072ZM620.526 223.888C624.793 223.888 628.633 223.291 632.046 222.096C635.459 220.731 638.446 218.853 641.006 216.464C643.566 213.904 645.785 210.747 647.662 206.992V179.6C646.297 175.845 644.249 172.688 641.518 170.128C638.787 167.397 635.545 165.349 631.79 163.984C628.035 162.448 623.854 161.68 619.246 161.68C614.126 161.68 609.347 163.045 604.91 165.776C600.643 168.336 597.23 171.92 594.67 176.528C592.11 181.136 590.83 186.427 590.83 192.4C590.83 198.373 592.195 203.749 594.926 208.528C597.657 213.307 601.241 217.061 605.678 219.792C610.286 222.523 615.235 223.888 620.526 223.888ZM752.944 138.128L755.76 158.096L755.248 156.304C759.173 149.307 764.72 143.675 771.888 139.408C779.056 134.971 787.845 132.752 798.256 132.752C808.837 132.752 817.627 135.909 824.624 142.224C831.792 148.368 835.461 156.389 835.632 166.288V250H799.792V179.6C799.621 174.651 798.256 170.725 795.696 167.824C793.307 164.752 789.211 163.216 783.408 163.216C777.947 163.216 773.168 165.008 769.072 168.592C764.976 172.176 761.819 177.04 759.6 183.184C757.381 189.328 756.272 196.411 756.272 204.432V250H720.432V138.128H752.944ZM872.432 138.128H908.272V250H872.432V138.128ZM871.664 98.448C871.664 93.1573 873.712 88.8053 877.808 85.392C882.075 81.9787 886.597 80.272 891.376 80.272C896.155 80.272 900.507 81.9787 904.432 85.392C908.528 88.8053 910.576 93.1573 910.576 98.448C910.576 103.739 908.528 108.091 904.432 111.504C900.507 114.747 896.155 116.368 891.376 116.368C886.597 116.368 882.075 114.747 877.808 111.504C873.712 108.091 871.664 103.739 871.664 98.448ZM1000.22 253.072C986.569 253.072 974.963 250.512 965.406 245.392C956.019 240.272 948.851 233.189 943.902 224.144C938.953 215.099 936.478 204.688 936.478 192.912C936.478 181.648 939.379 171.493 945.182 162.448C950.985 153.403 958.75 146.235 968.478 140.944C978.206 135.483 989.043 132.752 1000.99 132.752C1017.03 132.752 1030.17 137.445 1040.41 146.832C1050.82 156.048 1057.57 169.445 1060.64 187.024L973.598 214.672L965.662 195.216L1028.64 173.968L1021.21 177.296C1019.85 172.859 1017.37 169.019 1013.79 165.776C1010.38 162.363 1005.17 160.656 998.174 160.656C992.883 160.656 988.19 161.936 984.094 164.496C980.169 166.885 977.097 170.384 974.878 174.992C972.83 179.429 971.806 184.72 971.806 190.864C971.806 197.861 973.086 203.749 975.646 208.528C978.206 213.136 981.705 216.635 986.142 219.024C990.579 221.413 995.529 222.608 1000.99 222.608C1004.92 222.608 1008.67 221.925 1012.25 220.56C1016.01 219.195 1019.68 217.403 1023.26 215.184L1039.13 241.808C1033.16 245.221 1026.68 247.952 1019.68 250C1012.85 252.048 1006.37 253.072 1000.22 253.072ZM1086.68 48.016H1122.52V250H1086.68V48.016ZM1250.11 304.016L1229.37 281.744C1234.49 277.989 1238.42 273.381 1241.15 267.92C1244.05 262.459 1245.5 255.803 1245.5 247.952V138.128H1281.34V250C1281.34 263.312 1278.95 274.32 1274.17 283.024C1269.39 291.899 1261.37 298.896 1250.11 304.016ZM1244.22 98.448C1244.22 93.1573 1246.27 88.8053 1250.36 85.392C1254.63 81.9787 1259.15 80.272 1263.93 80.272C1268.71 80.272 1273.06 81.9787 1276.99 85.392C1281.08 88.8053 1283.13 93.1573 1283.13 98.448C1283.13 103.739 1281.08 108.091 1276.99 111.504C1273.06 114.747 1268.71 116.368 1263.93 116.368C1259.15 116.368 1254.63 114.747 1250.36 111.504C1246.27 108.091 1244.22 103.739 1244.22 98.448ZM1309.48 192.656C1309.48 181.221 1312.12 170.981 1317.41 161.936C1322.88 152.891 1330.47 145.808 1340.2 140.688C1349.93 135.397 1361.1 132.752 1373.73 132.752C1386.53 132.752 1397.63 135.397 1407.01 140.688C1416.4 145.808 1423.57 152.891 1428.52 161.936C1433.64 170.981 1436.2 181.221 1436.2 192.656C1436.2 204.091 1433.64 214.416 1428.52 223.632C1423.57 232.677 1416.4 239.845 1407.01 245.136C1397.63 250.427 1386.36 253.072 1373.22 253.072C1360.93 253.072 1349.93 250.683 1340.2 245.904C1330.64 241.125 1323.13 234.213 1317.67 225.168C1312.21 216.123 1309.48 205.285 1309.48 192.656ZM1345.57 192.912C1345.57 198.715 1346.77 204.005 1349.16 208.784C1351.55 213.392 1354.79 217.061 1358.89 219.792C1362.98 222.523 1367.59 223.888 1372.71 223.888C1378.34 223.888 1383.21 222.523 1387.3 219.792C1391.4 217.061 1394.56 213.392 1396.77 208.784C1398.99 204.005 1400.1 198.715 1400.1 192.912C1400.1 186.939 1398.99 181.648 1396.77 177.04C1394.56 172.432 1391.4 168.763 1387.3 166.032C1383.21 163.301 1378.34 161.936 1372.71 161.936C1367.59 161.936 1362.98 163.301 1358.89 166.032C1354.79 168.763 1351.55 172.432 1349.16 177.04C1346.77 181.648 1345.57 186.939 1345.57 192.912ZM1475.18 250V169.36H1456.24V137.616H1475.18V98.704C1475.18 84.0267 1479.37 72.08 1487.73 62.864C1496.26 53.4773 1508.55 48.784 1524.59 48.784C1529.37 48.784 1534.66 49.552 1540.46 51.088C1546.44 52.4533 1551.64 54.7573 1556.08 58L1540.98 83.856C1539.27 81.6373 1537.22 80.1867 1534.83 79.504C1532.61 78.6507 1530.48 78.224 1528.43 78.224C1523.31 78.224 1519.13 79.9307 1515.89 83.344C1512.65 86.7573 1511.02 92.2187 1511.02 99.728V137.616H1544.82V169.36H1511.02V250H1475.18ZM1557.87 250V169.36H1538.93V137.616H1557.87V98.704C1557.87 84.0267 1562.05 72.08 1570.42 62.864C1578.95 53.4773 1591.24 48.784 1607.28 48.784C1612.06 48.784 1617.35 49.552 1623.15 51.088C1629.13 52.4533 1634.33 54.7573 1638.77 58L1623.66 83.856C1621.96 81.6373 1619.91 80.1867 1617.52 79.504C1615.3 78.6507 1613.17 78.224 1611.12 78.224C1606 78.224 1601.82 79.9307 1598.58 83.344C1595.33 86.7573 1593.71 92.2187 1593.71 99.728V137.616H1627.5V169.36H1593.71V250H1557.87ZM1710.97 253.072C1697.32 253.072 1685.71 250.512 1676.16 245.392C1666.77 240.272 1659.6 233.189 1654.65 224.144C1649.7 215.099 1647.23 204.688 1647.23 192.912C1647.23 181.648 1650.13 171.493 1655.93 162.448C1661.73 153.403 1669.5 146.235 1679.23 140.944C1688.96 135.483 1699.79 132.752 1711.74 132.752C1727.78 132.752 1740.92 137.445 1751.16 146.832C1761.57 156.048 1768.32 169.445 1771.39 187.024L1684.35 214.672L1676.41 195.216L1739.39 173.968L1731.96 177.296C1730.6 172.859 1728.12 169.019 1724.54 165.776C1721.13 162.363 1715.92 160.656 1708.92 160.656C1703.63 160.656 1698.94 161.936 1694.84 164.496C1690.92 166.885 1687.85 170.384 1685.63 174.992C1683.58 179.429 1682.56 184.72 1682.56 190.864C1682.56 197.861 1683.84 203.749 1686.4 208.528C1688.96 213.136 1692.45 216.635 1696.89 219.024C1701.33 221.413 1706.28 222.608 1711.74 222.608C1715.67 222.608 1719.42 221.925 1723 220.56C1726.76 219.195 1730.43 217.403 1734.01 215.184L1749.88 241.808C1743.91 245.221 1737.43 247.952 1730.43 250C1723.6 252.048 1717.12 253.072 1710.97 253.072Z" fill="#2A2A2A"/>
</svg>
